packages/foundations/assets/icons/functional/images/food/cup_24_filled.svg

<svg xmlns="http://www.w3.org/2000/svg" width="20" height="20" fill="none"><path fill="#1A1C1F" fill-rule="evenodd" d="M9.5 4v2h2V2h-2zm-4 .5V6h2V3h-2zm-2.992 7.024.009 3.526.091.331a3.55 3.55 0 0 0 2.521 2.514l.321.088h5.1l.321-.088c1.021-.283 1.829-.947 2.281-1.878.229-.469.318-.863.339-1.489l.018-.521.754-.015c.696-.014.776-.022 1.046-.104 1.072-.324 1.821-1.096 2.111-2.174.094-.349.087-1.069-.015-1.445-.291-1.08-1.073-1.868-2.165-2.179l-.257-.073-6.242-.009-6.243-.009zm12.394-1.437a1 1 0 0 1 .488.473c.126.259.133.647.014.873a1.06 1.06 0 0 1-.454.462c-.161.085-.188.089-.808.099l-.642.011v-2.01l.625.011c.551.009.643.019.777.081"/></svg>

<svg width="20" height="20" viewBox="0 0 20 20" fill="none" xmlns="http://www.w3.org/2000/svg"><path d="M9.500 4.000 L 9.500 6.000 10.500 6.000 L 11.500 6.000 11.500 4.000 L 11.500 2.000 10.500 2.000 L 9.500 2.000 9.500 4.000 M5.500 4.500 L 5.500 6.000 6.500 6.000 L 7.500 6.000 7.500 4.500 L 7.500 3.000 6.500 3.000 L 5.500 3.000 5.500 4.500 M2.508 11.524 L 2.517 15.050 2.608 15.381 C 2.949 16.622,3.879 17.549,5.129 17.895 L 5.450 17.983 8.000 17.983 L 10.550 17.983 10.871 17.895 C 11.892 17.612,12.700 16.948,13.152 16.017 C 13.381 15.548,13.470 15.154,13.491 14.528 L 13.509 14.007 14.263 13.992 C 14.959 13.978,15.039 13.970,15.309 13.888 C 16.381 13.564,17.130 12.792,17.420 11.714 C 17.514 11.365,17.507 10.645,17.405 10.269 C 17.114 9.189,16.332 8.401,15.240 8.090 L 14.983 8.017 8.741 8.008 L 2.498 7.999 2.508 11.524 M14.902 10.087 C 15.124 10.190,15.285 10.346,15.390 10.560 C 15.516 10.819,15.523 11.207,15.404 11.433 C 15.298 11.638,15.149 11.789,14.950 11.895 C 14.789 11.980,14.762 11.984,14.142 11.994 L 13.500 12.005 13.500 11.000 L 13.500 9.995 14.125 10.006 C 14.676 10.015,14.768 10.025,14.902 10.087 " fill="#1A1C1F" stroke="none" fill-rule="evenodd"></path></svg>
